symbols/default/49.svg

<svg xmlns="http://www.w3.org/2000/svg" fill="none" viewBox="0 0 100 100">
  <g clip-path="url(#a)">
    <path fill="#CCC" fill-rule="evenodd" d="M81.3 42.9C79.4 31.6 69.4 23 57.7 23c-9.1 0-17.3 5.1-21.3 13.1-1.2-.5-2.4-.7-3.6-.7-4.2 0-7.8 2.5-9.2 6.2-.6-.1-1.1-.1-1.7-.1-4.1 0-7.9 1.6-10.7 4.5C8.5 48.8 7 52.4 7 56.2v.2c.1 4.1 1.7 7.8 4.6 10.5 2.7 2.7 6.4 4.2 10.3 4.2h55.7c7.9 0 14.4-6.4 14.4-14.3 0-6.6-4.5-12.3-10.7-13.9Z" clip-rule="evenodd"/>
    <path fill="url(#b)" fill-rule="evenodd" d="M81.3 42.9C79.4 31.6 69.4 23 57.7 23c-9.1 0-17.3 5.1-21.3 13.1-1.2-.5-2.4-.7-3.6-.7-4.2 0-7.8 2.5-9.2 6.2-.6-.1-1.1-.1-1.7-.1-4.1 0-7.9 1.6-10.7 4.5C8.5 48.8 7 52.4 7 56.2v.2c.1 4.1 1.7 7.8 4.6 10.5 2.7 2.7 6.4 4.2 10.3 4.2h55.7c7.9 0 14.4-6.4 14.4-14.3 0-6.6-4.5-12.3-10.7-13.9Z" clip-rule="evenodd" opacity=".6" style="mix-blend-mode:multiply"/>
    <g filter="url(#c)" opacity=".3" style="mix-blend-mode:multiply">
      <path fill="#B6B6B6" d="M29.5 64c1.787 0 24.848-1.272 26.48-2 2.23-.994-2.39-6.972 0-7.47 1.08-.224 2.667-.927 2.667-.927s4.352-1.602 5.103-1.602c.75 0 .374-2.964.14-4.81l-.14-1.32c0-.87-2.592-2.674-3-4.87-.284-1.527.424-3.585.276-3.968 0 0-.05-.029-.036-.032.014-.004.026.007.036.032.112.053.922.327.922.327 1.948.66 5.03 1.74 7.802 3.64 1.658 1.138 3.941 3.314 3.941 3.314s1.645 1.272 2.059 1.687c1 1 4 4 6 4h5L89 51.59l.5 3.21c0 7.9-6.5 14.3-14.4 14.3H18.5S23 64 29.5 64Z"/>
    </g>
    <path fill="#00B8F1" d="M40.7 92.5h-2.8l1.4-2.5c.4-.6.2-1.5-.5-1.8-.7-.4-1.5-.2-1.9.5l-1.4 2.4-1.4-2.4c-.4-.7-1.2-.9-1.8-.5-.4.2-.6.5-.7.8-.1.3 0 .7.1 1l1.4 2.4h-2.7c-.8.1-1.4.7-1.4 1.4s.6 1.4 1.4 1.4h2.8l-1.4 2.4c-.2.3-.2.7-.1 1 .1.3.3.6.6.8.6.4 1.5.1 1.8-.5l1.4-2.4 1.4 2.5c.2.4.7.7 1.2.7.2 0 .5-.1.7-.2.6-.4.9-1.2.5-1.8l-1.4-2.5h2.8c.7 0 1.4-.6 1.4-1.4 0-.8-.7-1.3-1.4-1.3ZM69.7 83.5h-2.8l1.4-2.5c.4-.6.2-1.5-.5-1.8-.7-.4-1.5-.2-1.9.5l-1.4 2.4-1.4-2.4c-.4-.7-1.2-.9-1.8-.5-.4.2-.6.5-.7.8-.1.3 0 .7.1 1l1.4 2.4h-2.7c-.8.1-1.4.7-1.4 1.4s.6 1.4 1.4 1.4h2.8l-1.4 2.4c-.2.3-.2.7-.1 1 .1.3.3.6.6.8.6.4 1.5.1 1.8-.5l1.4-2.4 1.4 2.5c.2.4.7.7 1.2.7.2 0 .5-.1.7-.2.6-.4.9-1.2.5-1.8l-1.4-2.5h2.8c.7 0 1.4-.6 1.4-1.4 0-.8-.7-1.3-1.4-1.3Z"/>
  </g>
  <defs>
    <linearGradient id="b" x1="47.5" x2="49.5" y1="38.5" y2="71.1" gradientUnits="userSpaceOnUse">
      <stop offset=".484" stop-color="#fff" stop-opacity="0"/>
      <stop offset="1" stop-color="#B3B2B2"/>
    </linearGradient>
    <clipPath id="a">
      <path fill="#fff" d="M0 0h100v100H0z"/>
    </clipPath>
    <filter id="c" width="85" height="46.101" x="11.5" y="30" color-interpolation-filters="sRGB" filterUnits="userSpaceOnUse">
      <feFlood flood-opacity="0" result="BackgroundImageFix"/>
      <feBlend in="SourceGraphic" in2="BackgroundImageFix" result="shape"/>
      <feGaussianBlur result="effect1_foregroundBlur_149_1460" stdDeviation="3.5"/>
    </filter>
  </defs>
</svg>

<svg width="100" height="100" viewBox="0 0 100 100" fill="none" xmlns="http://www.w3.org/2000/svg">
<g clip-path="url(#clip0_149_1460)">
<path fill-rule="evenodd" clip-rule="evenodd" d="M81.3 42.9C79.4 31.6 69.4 23 57.7 23C48.6 23 40.4 28.1 36.4 36.1C35.2 35.6 34 35.4 32.8 35.4C28.6 35.4 25 37.9 23.6 41.6C23 41.5 22.5 41.5 21.9 41.5C17.8 41.5 14 43.1 11.2 46C8.5 48.8 7 52.4 7 56.2V56.4C7.1 60.5 8.7 64.2 11.6 66.9C14.3 69.6 18 71.1 21.9 71.1H77.6C85.5 71.1 92 64.7 92 56.8C92 50.2 87.5 44.5 81.3 42.9Z" fill="#CCCCCC"/>
<g opacity="0.6">
<path fill-rule="evenodd" clip-rule="evenodd" d="M81.3 42.9C79.4 31.6 69.4 23 57.7 23C48.6 23 40.4 28.1 36.4 36.1C35.2 35.6 34 35.4 32.8 35.4C28.6 35.4 25 37.9 23.6 41.6C23 41.5 22.5 41.5 21.9 41.5C17.8 41.5 14 43.1 11.2 46C8.5 48.8 7 52.4 7 56.2V56.4C7.1 60.5 8.7 64.2 11.6 66.9C14.3 69.6 18 71.1 21.9 71.1H77.6C85.5 71.1 92 64.7 92 56.8C92 50.2 87.5 44.5 81.3 42.9Z" fill="url(#paint0_linear_149_1460)" style="mix-blend-mode:multiply"/>
</g>
<path d="M40.7 92.5H37.9L39.3 90C39.7 89.4 39.5 88.5 38.8 88.2C38.1 87.8 37.3 88 36.9 88.7L35.5 91.1L34.1 88.7C33.7 88 32.9 87.8 32.3 88.2C31.9 88.4 31.7 88.7 31.6 89C31.5 89.3 31.6 89.7 31.7 90L33.1 92.4H30.4C29.6 92.5 29 93.1 29 93.8C29 94.5 29.6 95.2 30.4 95.2H33.2L31.8 97.6C31.6 97.9 31.6 98.3 31.7 98.6C31.8 98.9 32 99.2 32.3 99.4C32.9 99.8 33.8 99.5 34.1 98.9L35.5 96.5L36.9 99C37.1 99.4 37.6 99.7 38.1 99.7C38.3 99.7 38.6 99.6 38.8 99.5C39.4 99.1 39.7 98.3 39.3 97.7L37.9 95.2H40.7C41.4 95.2 42.1 94.6 42.1 93.8C42.1 93 41.4 92.5 40.7 92.5Z" fill="#00B8F1"/>
<path d="M69.7 83.5H66.9L68.3 81C68.7 80.4 68.5 79.5 67.8 79.2C67.1 78.8 66.3 79 65.9 79.7L64.5 82.1L63.1 79.7C62.7 79 61.9 78.8 61.3 79.2C60.9 79.4 60.7 79.7 60.6 80C60.5 80.3 60.6 80.7 60.7 81L62.1 83.4H59.4C58.6 83.5 58 84.1 58 84.8C58 85.5 58.6 86.2 59.4 86.2H62.2L60.8 88.6C60.6 88.9 60.6 89.3 60.7 89.6C60.8 89.9 61 90.2 61.3 90.4C61.9 90.8 62.8 90.5 63.1 89.9L64.5 87.5L65.9 90C66.1 90.4 66.6 90.7 67.1 90.7C67.3 90.7 67.6 90.6 67.8 90.5C68.4 90.1 68.7 89.3 68.3 88.7L66.9 86.2H69.7C70.4 86.2 71.1 85.6 71.1 84.8C71.1 84 70.4 83.5 69.7 83.5Z" fill="#00B8F1"/>
</g>
<defs>
<linearGradient id="paint0_linear_149_1460" x1="47.5" y1="38.5" x2="49.5" y2="71.1" gradientUnits="userSpaceOnUse">
<stop offset="0.484375" stop-color="white" stop-opacity="0"/>
<stop offset="1" stop-color="#B3B2B2"/>
</linearGradient>
<clipPath id="clip0_149_1460">
<rect width="100" height="100" fill="white"/>
</clipPath>
</defs>
</svg>
